X: 1644
T: The Fiddler's Frolic
M:C|
L:1/8
B:O'Neill's 1644
N:"collected by J. O'Neill"
K:G
D>B, \
| G,>B,A,>C B,>DC>E | D>GF>A G>BA>c | B>AG>E D>B,G,>B, | A,>G,A,>B, A,2 D>B, |
| G,>B,A,>C B,>DC>E | D>GF>A G>BA>c | B>AG>E D>B,G,>B, | A,>G,A,>B, G,2 :|
|: d'>c' \
| (3bc'b (3aba g>ag>e | d>Bg>e d>BG>B | cbcb BaBa | A>GA>B A2 d'>c' |
| (3bc'b (3aba g>ag>e | d>Bg>e d>BG>B | (3cag (3fed c>AF>A | G2 G,2 G,2 :|


